X: 32497
T: Plant Un Cao
R: hornpipe
M: 4/4
K: Gmajor
|:G2 D2 G2 AB|c2 B2 A2 D2|dedc BABc|B2 A2 B2 G2|
B2 A2 GDGB|c2 B2 A2 D2|dedc BABc|B2 A2 G4:|
B2 B2 c3B|AGAB G3z|A2 A2 BcBA|G2 F2 E4|
EFGE A2 A2|GFGA B2 B2|EFGA BcBA|G2 F2 E3 z|
B2 B2 e3d|cBAc B4|EFGA BcBA|G2 A2 B2 G2|
B2 B2 e3d|cBAc B4|EFGA BcBA|G2 F2 E4||

